assets/emojis/ExpressionlessFace.svg

<svg width="126" height="126" viewBox="0 0 126 126" fill="none" xmlns="http://www.w3.org/2000/svg">
<circle cx="63.1162" cy="63.1494" r="62.3496" fill="#F9B42F"/>
<path opacity="0.3" fill-rule="evenodd" clip-rule="evenodd" d="M114.052 99.3197C102.73 110.911 86.9281 118.107 69.4452 118.107C35.0105 118.107 7.09564 90.1917 7.09564 55.757C7.09564 42.3613 11.3201 29.9523 18.5095 19.7896C7.53173 31.0287 0.766602 46.4005 0.766602 63.3523C0.766602 97.787 28.6815 125.702 63.1162 125.702C84.1553 125.702 102.76 115.281 114.052 99.3197Z" fill="#BC8417"/>
<path fill-rule="evenodd" clip-rule="evenodd" d="M81.9612 55.8711H95.1459C95.6825 55.8758 96.1957 56.0922 96.5735 56.4734C96.9514 56.8546 97.1634 57.3696 97.1634 57.9063C97.1634 58.443 96.9514 58.958 96.5735 59.3392C96.1957 59.7204 95.6825 59.9368 95.1459 59.9415H81.9612C81.691 59.9462 81.4225 59.897 81.1715 59.7969C80.9205 59.6967 80.6919 59.5475 80.4992 59.3581C80.3064 59.1686 80.1533 58.9427 80.0489 58.6934C79.9444 58.4441 79.8906 58.1766 79.8906 57.9063C79.8906 57.3665 80.105 56.8489 80.4867 56.4672C80.8684 56.0855 81.3861 55.8711 81.9258 55.8711H81.9612Z" fill="#2C2A46"/>
<path fill-rule="evenodd" clip-rule="evenodd" d="M31.2685 55.8704H44.4531C44.7233 55.8657 44.9918 55.9149 45.2428 56.0151C45.4939 56.1152 45.7224 56.2644 45.9152 56.4539C46.1079 56.6433 46.261 56.8693 46.3655 57.1185C46.47 57.3678 46.5238 57.6354 46.5237 57.9056C46.5237 58.4454 46.3093 58.9631 45.9276 59.3447C45.5459 59.7264 45.0283 59.9408 44.4885 59.9408H31.2685C30.7318 59.9362 30.2187 59.7197 29.8408 59.3385C29.4629 58.9574 29.251 58.4424 29.251 57.9056C29.251 57.3689 29.4629 56.8539 29.8408 56.4727C30.2187 56.0916 30.7318 55.8751 31.2685 55.8704Z" fill="#2C2A46"/>
<path d="M78.4752 77.3921H48.7434C48.274 77.3921 47.8239 77.5786 47.492 77.9104C47.1601 78.2423 46.9736 78.6925 46.9736 79.1618C46.9736 79.6312 47.1601 80.0813 47.492 80.4132C47.8239 80.7451 48.274 80.9316 48.7434 80.9316H78.4752C78.9445 80.9316 79.3947 80.7451 79.7266 80.4132C80.0584 80.0813 80.2449 79.6312 80.2449 79.1618C80.2449 78.6925 80.0584 78.2423 79.7266 77.9104C79.3947 77.5786 78.9445 77.3921 78.4752 77.3921Z" fill="#2C2A46"/>
</svg>

<svg xmlns="http://www.w3.org/2000/svg" width="126" height="126" fill="none" viewBox="0 0 126 126"><circle cx="63.116" cy="63.149" r="62.35" fill="#f9b42f"/><path fill="#bc8417" fill-rule="evenodd" d="M114.052 99.32c-11.322 11.591-27.124 18.787-44.607 18.787-34.434 0-62.35-27.915-62.35-62.35 0-13.396 4.225-25.805 11.415-35.967C7.531 31.029.767 46.4.767 63.352c0 34.435 27.915 62.35 62.35 62.35 21.038 0 39.643-10.421 50.935-26.382" clip-rule="evenodd" opacity=".3"/><path fill="#2c2a46" fill-rule="evenodd" d="M81.961 55.871h13.185a2.035 2.035 0 0 1 0 4.07H81.96a2.036 2.036 0 1 1-.035-4.07zm-50.692-.001h13.184a2.035 2.035 0 1 1 .035 4.07h-13.22a2.035 2.035 0 0 1 0-4.07" clip-rule="evenodd"/><path fill="#2c2a46" d="M78.475 77.392H48.743a1.77 1.77 0 0 0 0 3.54h29.732a1.77 1.77 0 0 0 0-3.54"/></svg>
